svgs/light/person-dots-from-line.svg

<svg xmlns="http://www.w3.org/2000/svg" viewBox="0 0 576 512"><!--! Font Awesome Pro 6.3.0 by @fontawesome - https://fontawesome.com License - https://fontawesome.com/license (Commercial License) Copyright 2023 Fonticons, Inc. --><path d="M560 480h-544c-8.844 0-15.1 7.156-15.1 16S7.159 512 16 512h543.1c8.844 0 15.1-7.156 15.1-16S568.8 480 560 480zM287.1 176c48.6 0 87.1-39.4 87.1-88S336.6 0 287.1 0S200 39.4 200 88S239.4 176 287.1 176zM288 32c30.88 0 56 25.12 56 56S318.9 144 288 144S232 118.9 232 88S257.1 32 288 32zM48 352c3.219 0 6.469-.9687 9.312-2.984C58.03 348.5 107.1 314 176 291.4L176 432C176 440.8 183.2 448 192 448s16-7.156 16-16V282.3C233.3 276.1 260.2 272 288 272c27.74 0 54.73 4.107 80 10.28V432c0 8.844 7.156 16 16 16s15.1-7.156 15.1-16L400 291.4c68.81 22.65 117.1 57.09 118.7 57.61c7.219 5.125 17.19 3.406 22.31-3.75c5.125-7.188 3.469-17.17-3.719-22.3C532.6 319.6 419.6 240 288 240s-244.6 79.59-249.3 82.98C31.5 328.1 29.84 338.1 34.97 345.3C38.09 349.7 43.03 352 48 352zM304 368c0 8.836 7.164 16 16 16s16-7.164 16-16c0-8.838-7.164-16-16-16S304 359.2 304 368zM80 256c8.836 0 15.1-7.164 15.1-16c0-8.838-7.164-16-15.1-16S64 231.2 64 240C64 248.8 71.17 256 80 256zM463.1 256c8.836 0 15.1-7.164 15.1-16c0-8.838-7.164-16-15.1-16s-15.1 7.162-15.1 16C447.1 248.8 455.2 256 463.1 256z"/></svg>

<svg xmlns="http://www.w3.org/2000/svg" viewBox="0 0 576 512"><!-- Font Awesome Pro 6.0.0-alpha2 by @fontawesome - https://fontawesome.com License - https://fontawesome.com/license (Commercial License) --><path d="M560 480H16C7.156 480 0 487.156 0 496S7.156 512 16 512H560C568.844 512 576 504.844 576 496S568.844 480 560 480ZM288 176C336.602 176 376 136.602 376 88S336.602 0 288 0S200 39.398 200 88S239.398 176 288 176ZM288 32C318.879 32 344 57.121 344 88S318.879 144 288 144S232 118.879 232 88S257.121 32 288 32ZM48 352C51.219 352 54.469 351.031 57.312 349.016C58.025 348.502 107.117 314.016 176 291.371V432C176 440.844 183.156 448 192 448S208 440.844 208 432V282.252C233.254 276.096 260.234 272 288 272C315.74 272 342.727 276.107 368 282.281V432C368 440.844 375.156 448 384 448S400 440.844 400 432V291.418C468.811 314.064 517.984 348.508 518.719 349.031C525.937 354.156 535.906 352.437 541.031 345.281C546.156 338.094 544.5 328.109 537.312 322.984C532.562 319.594 419.625 240 288 240S43.438 319.594 38.688 322.984C31.5 328.109 29.844 338.109 34.969 345.297C38.094 349.672 43.031 352 48 352ZM304 368C304 376.836 311.164 384 320 384S336 376.836 336 368C336 359.162 328.836 352 320 352S304 359.162 304 368ZM80 256C88.836 256 96 248.836 96 240C96 231.162 88.836 224 80 224S64 231.162 64 240C64 248.836 71.164 256 80 256ZM464 256C472.836 256 480 248.836 480 240C480 231.162 472.836 224 464 224S448 231.162 448 240C448 248.836 455.164 256 464 256Z"/></svg>
